src/icons/nunjucks.svg

<svg xmlns="http://www.w3.org/2000/svg" width="16" height="16" fill="none"><path fill="#C3E88D" fill-rule="evenodd" d="M6.323 12h1.333V3.979H6.323V7.24l-.99-3.261H4V12h1.333V8.518zm4.86 0c.473 0 .817-.397.817-.838V5.874h-1.333v4.76h-.99V9.179l-1.376.309v1.675c0 .484.387.837.817.837z" clip-rule="evenodd"/></svg>

<svg width="16" height="16" viewBox="0 0 16 16" fill="none" xmlns="http://www.w3.org/2000/svg">
<path fill-rule="evenodd" clip-rule="evenodd" d="M6.323 12H7.656V3.979H6.323V7.24L5.333 3.979H4V12H5.333V8.518L6.323 12ZM11.183 12C11.656 12 12 11.603 12 11.162V5.874H10.667V10.634H9.677V9.179L8.301 9.488V11.163C8.301 11.647 8.688 12 9.118 12H11.183Z" fill="#C3E88D"/>
</svg>
